!!!!SEGMENT: pl-wn--mus-iii-601--001-002_janiewicz-feliks--ie-trio-andantino-la-pollacca.krn
!!!cenid: 17xx:2388
!!!COM: Janiewicz, Feliks
!!!COM-rismID: pe30011012
!!!CDT: 1762-1848
!!!CNT:
!!!OPR: Ie Trio
!!!OTL: Andantino la Pollacca
!!!OMV: 002
!!!PDT:
!!!AGN:
!!!SMS-siglum: PL-Wn
!!!SMS-shelfmark: Mus.III.601
!!!SMS-shelfwork: 001-002 M
!!!SMS-variant:
!!!SMS-altvar:
!!!NIFC-rismSourceID: 990069598
!!!NIFC-rismChildID: 990069598
!!!NIFC-islandoraID: none
!!!URL-pdf-islandora:
!!!URL-scan: https://polona.pl/item/six-trios-pour-deux-violons-basse,MTAxMDA3MzY2/0/#item @EN{Scan on Polona} @PL{Skany w portalu Polona}
!!!ONB-nifc: UWAGA: źródło zawiera 6 Trio na 2 skrzypiec i wiolonczelę. Violino Primo (od skanu 3), Violino Secondo (od skanu 37), Basso (od skanu 61). Basso to partia wiolonczeli. Części Ie Trio: 1. Allegro moderato, 2. Andantino la Pollacca, 3. Finale/Allegro
**kern	**dynam	**kern	**dynam	**kern	**dynam
*part3	*part3	*part2	*part2	*part1	*part1
*staff3	*	*staff2	*	*staff1	*
*Ibass	*	*Iempty	*	*Ivioln	*
*I"BASSO	*	*I"VIOLINO SECONDO	*	*I"VIOLINO PRIMO	*
*mI"Violoncello	*	*mI"Violino II	*	*mI"Violino I	*
*I'b	*	*I'vl 2	*	*I'vl 1	*
*mI'vlc	*	*	*	*	*
*clefF4	*	*clefG2	*	*clefG2	*
*k[f#]	*	*k[f#]	*	*k[f#]	*
*G:	*	*G:	*	*G:	*
*M3/4	*	*M3/4	*	*M3/4	*
*xywh-#63:382,576,3402,524	*	*xywh-#41:649,492,3329,499	*	*xywh-#6:521,502,3427,565	*
8ryy	.	8ryy	.	16ryy	.
!	!	!	!	!LO:MO:mod=!null:null	!
!	!	!	!	!LO:TX:a:B:t=Andantino\nla Pollacca	!
!	!	!	!	!LO:MO:mod=!LO&colon;TX&colon;a&colon;i&colon;t=Dolce	!
!	!	!	!	!LO:TX:b:i:t=dol.	!
!	!	!	!	!	!LO:DY:t= :mod=%s
!	!	!	!	!	!LO:MO:mod=!LO&colon;DY&colon;ed=brack
!	!	!	!	!	!null
.	.	.	.	(16dd\LL	p
!LO:MO:mod=!null:null	!	!LO:MO:mod=!null:null	!	!	!
!LO:TX:a:B:t=Andantino\nPollacca.	!	!LO:TX:a:B:t=Andantino\nla Pollacca	!	!	!
8r	.	8r	.	16ee\	.
.	.	.	.	16dd\JJ)	.
=1	=1	=1	=1	=1	=1
!	!	!	!LO:DY:t= :mod=%s	!	!
!	!	!	!LO:MO:mod=!LO&colon;DY&colon;ed=brack	!	!
!	!	!	!null	!	!
4DD/	p	8A'/L	p	4.cc\	.
.	.	8c'/	.	.	.
4D\	.	8A'/	.	.	.
.	.	8c'/	.	(8b'/L	.
4r	.	8A'/	.	8a'/	.
.	.	8c'/J	.	8g'/J	.
=2	=2	=2	=2	=2	=2
4D\	.	8A/L	.	8f#'/L	.
.	.	8c/J	.	8e'/	.
2DD/	.	8A/L	.	8f#'/	.
.	.	8c/J	.	8d'/	.
.	.	8A/L	.	8e'/	.
.	.	8c/J	.	8f#'/J)	.
=3	=3	=3	=3	=3	=3
4GG/	.	8B/L	.	4.g/	.
.	.	8d/	.	.	.
4r	.	8B/	.	.	.
.	.	8d/J	.	(16g/LL	.
.	.	.	.	16b/JJ)	.
4FF#/	.	8c/L	.	8a`/L	.
.	.	8d/J	.	(16a/L	.
.	.	.	.	16cc/JJ)	.
=4	=4	=4	=4	=4	=4
4GG/	.	8r	.	(2b\	.
.	.	8dL 8B/	.	.	.
4r	.	8d 8B/	.	.	.
.	.	8dJ 8B/	.	.	.
4r	.	8d 8B/	.	8gg`\L)	.
!	!	!	!	!LO:MO:mod=*null:null	!
*	*	*	*	*Xtuplet	*
!	!	!	!	!LO:TUP:a:problem:klamra łukowa	!
.	.	8r	.	24dd\L	.
.	.	.	.	24ee\	.
.	.	.	.	24dd\JJ	.
=5	=5	=5	=5	=5	=5
4DD/	.	8A/L	.	4.cc\	.
.	.	8c/	.	.	.
[2D\	.	8A/	.	.	.
.	.	8d/	.	(8b'/L	.
.	.	8c/	.	8a'/	.
.	.	8B/J	.	8g'/J	.
!	!	!	!	!LO:LB:g=original	!
=6	=6	=6	=6	=6	=6
*	*	*	*	*xywh-#6:537,1005,3393,460	*
4D\]	.	8A/L	.	8f#'/L	.
.	.	8c/	.	8e'/	.
2DD/	.	8A/	.	8f#'/	.
.	.	8c/	.	8d'/	.
.	.	8A/	.	8e'/	.
.	.	8c/J	.	8f#'/J)	.
=7	=7	=7	=7	=7	=7
4GG/	.	8B/L	.	(4.g/	.
.	.	8d/	.	.	.
4G\	.	8B/	.	.	.
.	.	8d/J	.	16g/LL	.
.	.	.	.	16b/JJ)	.
4F#X\	.	8c/L	.	8a`/L	.
.	.	8d/J	.	(16a/L	.
.	.	.	.	16cc/JJ)	.
=8	=8	=8	=8	=8	=8
4G\	.	8B/L	.	(4g\	.
.	.	8d/	.	.	.
4GG/	.	8B/	.	16g\LL	.
.	.	.	.	16b\	.
.	.	8d/J	.	16dd\	.
.	.	.	.	16b\JJ	.
4r	.	8B/	.	8g\L)	.
!	!	!	!	!LO:TUP:a:problem:klamra łukowa	!
!	!	!	!	!	!LO:DY:b:t=F
.	.	8r	.	24dd\L	f
.	.	.	.	24cc#X\	.
.	.	.	.	24dd\JJ	.
!	!	!LO:LB:g=original	!	!	!
=9	=9	=9	=9	=9	=9
*	*	*xywh-#41:577,897,3414,433	*	*	*
!	!LO:DY:b:t=F	!	!LO:DY:b:t=F	!	!
2.G\	f	8A/L	f	4.ee\	.
.	.	8c#X/J	.	.	.
.	.	8A/L	.	.	.
.	.	8c#/J	.	(8dd'\L	.
.	.	8A/L	.	8cc#X'\	.
.	.	8c#/J	.	8a'\J)	.
=10	=10	=10	=10	=10	=10
8F#\	.	8A/L	.	8dd\L	.
8r	.	8d/J	.	16ff#\L	.
.	.	.	.	16aa\JJ	.
8F#\	.	8r	.	8ddd\L	.
8r	.	8d 8A/	.	8dd\	.
8F#\	.	8r	.	8ddd\	.
8r	.	8d 8A/	.	8dd\J	.
!LO:LB:g=original	!	!	!	!LO:LB:g=original	!
=11	=11	=11	=11	=11	=11
*xywh-#63:326,984,3465,379	*	*	*	*xywh-#6:496,1311,3470,469	*
2.G\	.	(8B-X/L	.	4.ee\	.
.	.	8A/)	.	.	.
.	.	8A/	.	.	.
.	.	8A/J	.	(8dd'\L	.
.	.	8A/L	.	8cc#X'\	.
.	.	8e/J	.	8a'\J)	.
=12	=12	=12	=12	=12	=12
4F#\	.	8r	.	8dd\L	.
.	.	8dL 8A/	.	16ff#X\L	.
.	.	.	.	16aa\JJ	.
4r	.	8d 8A/	.	4.ddd\	.
.	.	8dJ 8A/	.	.	.
4r	.	8d 8A/	.	.	.
!	!	!	!	!LO:TUP:a:problem:klamra łukowa	!
!	!	!	!	!	!LO:DY:t= :mod=%s
!	!	!	!	!	!LO:MO:mod=!LO&colon;DY&colon;ed=brack
!	!	!	!	!	!null
.	.	8r	.	24dd\LL	f
.	.	.	.	24cc#X\	.
.	.	.	.	24dd\JJ	.
=13	=13	=13	=13	=13	=13
!	!LO:DY:b:t=F	!	!LO:DY:b:t=F	!	!
8AA/L	f	8g/	f	4.ee\	.
16C#X/L	.	4g/	.	.	.
16E/JJ	.	.	.	.	.
8A\L	.	.	.	.	.
8AA/	.	8f#/	.	(8dd'\	.
8A\	.	8e/L	.	8cc#X'\L	.
8AA/J	.	8g/J	.	8a'\J)	.
=14	=14	=14	=14	=14	=14
4.A\	.	8f#/	.	8dd\L	.
.	.	4f#/	.	16ff#\L	.
.	.	.	.	16aa\JJ	.
.	.	.	.	8qqccc#X/	.
.	.	.	.	8ddd\L	.
8G\L	.	8e/	.	8dd\J	.
.	.	.	.	8qqccc#/	.
8F#\	.	8d/L	.	8ddd\L	.
8D\J	.	8f#/J	.	8dd\J	.
=15	=15	=15	=15	=15	=15
8AA/L	.	8g/	.	4.ee\	.
16C#X/L	.	4g/	.	.	.
16E/JJ	.	.	.	.	.
8A\L	.	.	.	.	.
8AA/	.	8f#/	.	8dd\L	.
8A\	.	8e/L	.	8cc#X\	.
8AA/J	.	8g/J	.	8a\J	.
=16	=16	=16	=16	=16	=16
!	!	!	!LO:HP:t= :mod=%s	!	!
!	!	!	!LO:MO:mod=!LO&colon;HP&colon;ed=brack	!	!
!	!	!	!null	!	!
8D'\L	>	8f#/L	>	2.dd\	p
8E'\	.	8g/	.	.	.
8F#'\	.	8a/	.	.	.
8G'\J	.	8b/J	.	.	.
8A'\	.	8ccn\	.	.	.
!	!	!	!LO:HP:t= :mod=%s	!	!
!	!	!	!LO:MO:mod=!LO&colon;HP&colon;ed=brack	!	!
!	!	!	!null	!	!
8r	]]	8r	]]	.	.
.	.	.	.	(16qqdd\LL	.
.	.	.	.	16qqdd\	.
.	.	.	.	16qqdd\JJ)	.
!	!	!	!	!LO:LB:g=original	!
=17	=17	=17	=17	=17	=17
*	*	*	*	*xywh-#6:490,1682,3507,463	*
8D\L	p	4.A/	p	4.ccn\	.
8E\	.	.	.	.	.
8F#\	.	.	.	.	.
8G\	.	8B/L	.	(8b'/L	.
8A\	.	8c/	.	8a'/	.
8B\J	.	[8d/J	.	8g'/J	.
!	!	!LO:LB:g=original	!	!	!
=18	=18	=18	=18	=18	=18
*	*	*xywh-#41:580,1176,3414,439	*	*	*
4c\	.	4d/]	.	8f#'/L	.
.	.	.	.	8e'/	.
4r	.	4r	.	8f#'/	.
.	.	.	.	8d'/	.
8r	.	8r	.	8e'/	.
8c\	.	8d/	.	8f#'/J)	.
=19	=19	=19	=19	=19	=19
8B\L	.	8d/	.	4.g/	.
8A\	.	4d/	.	.	.
8B\	.	.	.	.	.
8G\J	.	8d/	.	(16g/LL	.
.	.	.	.	16b/JJ)	.
4F#\	.	8d/L	.	8a`/L	.
.	.	[8d/J	.	(16a/L	.
.	.	.	.	16cc/JJ)	.
!LO:LB:g=original	!	!	!	!	!
=20	=20	=20	=20	=20	=20
*xywh-#63:307,1265,3452,366	*	*	*	*	*
4G\	.	8d/L]	.	(2g\	.
.	.	8d 8B/	.	.	.
4r	.	8d 8B/	.	.	.
.	.	8dJ 8B/	.	.	.
4r	.	8d 8B/	.	8gg`\L)	.
!	!	!	!	!LO:TUP:a:problem:klamra łukowa	!
.	.	8r	.	24dd\L	.
.	.	.	.	24ee\	.
.	.	.	.	24dd\JJ	.
=21	=21	=21	=21	=21	=21
8r	.	(4A/	.	4.cc\	.
!LO:TUP:b:problem:klamra łukowa	!	!	!	!	!
24D/LL	.	.	.	.	.
24C#X/	.	.	.	.	.
24D/JJ	.	.	.	.	.
[2DD/	.	24A/LL	.	.	.
.	.	24B/	.	.	.
.	.	24A/J)	.	.	.
.	.	8d/J	.	(8b'/L	.
.	.	8c/L	.	8a'/	.
.	.	8B/J	.	8g'/J	.
=22	=22	=22	=22	=22	=22
4DD/]	.	8A/L	.	8f#'/L	.
.	.	8c/	.	8e'/	.
[2D\	.	8A/	.	8f#'/	.
.	.	8c/	.	8d'/	.
.	.	8A/	.	8e'/	.
.	.	8c/J	.	8f#'/J)	.
!	!	!	!	!LO:LB:g=original	!
=23	=23	=23	=23	=23	=23
*	*	*	*	*xywh-#6:518,2037,3436,432	*
8D\L]	.	(4B/	.	4.g/	.
!LO:TUP:a:problem:klamra łukowa	!	!	!	!	!
24G\L	.	.	.	.	.
24F#\	.	.	.	.	.
24G\JJ	.	.	.	.	.
4GG/	.	24B/LL	.	.	.
.	.	24c/	.	.	.
.	.	24B/J)	.	.	.
.	.	8d/J	.	(16g/LL	.
.	.	.	.	16b/JJ)	.
8D\L	.	8c/L	.	8a`/L	.
8F#\J	.	8d/J	.	(16a/L	.
.	.	.	.	16cc/JJ)	.
=24	=24	=24	=24	=24	=24
8G\L	.	8B/L	.	(16g/LL	.
.	.	.	.	16d/)	.
24F#\L	.	8c/J	.	16b`/	.
24G\	.	.	.	.	.
.	.	.	.	16a`/JJ	.
24F#\JJ	.	.	.	.	.
!	!	!LO:TUP:b:problem:klamra łukowa	!	!	!
8G\L	.	24B/LL	.	(8a/	.
.	.	24c/	.	.	.
.	.	24d/J	.	.	.
8D\J	.	8c/J	.	4g/)	.
8GG/	.	8B/	.	.	.
8r	.	8r	.	8d/	.
!!LO:MO:ori
=25	=25	=25	=25	=25	=25
!!LO:MO:end
!!LO:MO:mod
!! =25||	=25||	=25||	=25||	=25||	=25||
!!LO:MO:end
*k[b-e-]	*	*k[b-e-]	*	*k[b-e-]	*
!LO:MO:mod=!null:null	!	!	!	!LO:MO:mod=!null:null	!
!LO:TX:a:t=Mineur	!	!	!	!LO:TX:a:t=Mineur	!
4GG/	.	8r	.	4.g/	.
!	!	!LO:MO:mod=!null:null	!	!	!
!	!	!LO:TX:a:t=Mineur	!	!	!
.	.	8d 8B-X/	.	.	.
4r	.	8dL 8B-/	.	.	.
.	.	8d 8B-/	.	8a/L	.
4r	.	8d 8B-/	.	8b-/	.
.	.	8dJ 8B-/	.	8g/J	.
=26	=26	=26	=26	=26	=26
8FF#X/	.	8r	.	8a/	.
8r	.	8d 8c/	.	4a/	.
!LO:SIC:s=8#F\:v	!	!	!	!	!
8F\	.	8r	.	.	.
8r	.	8d 8c/	.	16a/LL	.
.	.	.	.	16b-/JJ	.
!LO:SIC:s=8#F\:v	!	!	!	!	!
8F\	.	8r	.	8a\L	.
8r	.	8d 8c/	.	(8dd\J	.
!	!	!LO:LB:g=original	!	!	!
=27	=27	=27	=27	=27	=27
*	*	*xywh-#41:599,1535,3399,395	*	*	*
8G\	.	8d 8B-/	.	8dd\)	.
8r	.	8r	.	4b-\	.
8G\	.	8d 8B-/	.	.	.
8r	.	8r	.	8dd\	.
!LO:SIC:s=8#F\:v	!	!	!	!	!
8F\	.	8d 8c/	.	8a\L	.
8r	.	8r	.	8dd\J	.
=28	=28	=28	=28	=28	=28
.	.	.	.	8qqcc/	.
*	*	*^	*	*	*
*	*	*	*xywh-#41:599,1535,3399,395	*	*	*
4G\	.	8r	8ryyyy	.	8b-/L	.
.	.	8d/L	8ryyyy	.	16a/L	.
.	.	.	.	.	16b-/JJ	.
4r	.	8d/	4.B-\	.	4.g/	.
.	.	8d/J	.	.	.	.
4r	.	8d 8B-/	.	.	.	.
.	.	8r	8ryyyy	.	8d/	.
*	*	*v	*v	*	*	*
!LO:LB:g=original	!	!	!	!LO:LB:g=original	!
=29	=29	=29	=29	=29	=29
*xywh-#63:278,1486,3518,454	*	*	*	*xywh-#6:533,2389,3467,407	*
8GG\L	.	8B-/	.	4.g/	.
8D\	.	4d/	.	.	.
8G\	.	.	.	.	.
8D\	.	4d/	.	8a/L	.
8G\	.	.	.	8b-/	.
8D\J	.	8B-/	.	8g/J	.
=30	=30	=30	=30	=30	=30
8F#X\L	.	2.c/	.	8a/	.
8D\	.	.	.	4a/	.
8F#\	.	.	.	.	.
8D\	.	.	.	16a/LL	.
.	.	.	.	16b-/JJ	.
8F#\	.	.	.	8a\L	.
8D\J	.	.	.	(8dd\J	.
=31	=31	=31	=31	=31	=31
8G\L	.	4B-/	.	8dd\)	.
8D\	.	.	.	4b-\	.
8G\	.	8d/L	.	.	.
8D\	.	8B-/J	.	8dd\	.
8F#X\	.	4c/	.	8a\L	.
8D\J	.	.	.	8dd\J	.
=32	=32	=32	=32	=32	=32
8G\L	.	4B-/	.	4.g/	.
8D\	.	.	.	.	.
8G\	.	8B-/L	.	.	.
8D\J	.	16B-/L	.	24d/LL	.
.	.	.	.	24b-/	.
.	.	16c/JJ	.	.	.
.	.	.	.	24a/JJ	.
8GG/	.	8B-/	.	8g\L	.
8r	.	8r	.	8dd\J	.
=33	=33	=33	=33	=33	=33
!	!LO:DY:b:t=F	!	!LO:DY:b:t=F	!	!LO:DY:b:t=F
8D\L	f	4a/	f	4.dd\	f
8f#X\J	.	.	.	.	.
8f#\L	.	8a/L	.	.	.
!	!	!	!	!LO:TUP:a:problem:klamra łukowa	!
8f#\J	.	8a/J	.	24dd\LL	.
.	.	.	.	24een\	.
.	.	.	.	24dd\JJ	.
8g\L	.	8b-X/L	.	8cc#X\L	.
8g\J	.	8b-/J	.	8cc#\J	.
=34	=34	=34	=34	=34	=34
!LO:SIC:s=4.f#\:v	!	!	!	!	!
4.f\	.	4.a/	.	8dd\L	.
.	.	.	.	16ff#X\L	.
.	.	.	.	16aa\JJ	.
.	.	.	.	8ddd\L	.
!LO:TUP:b:problem:klamra łukowa	!	!LO:TUP:b:problem:klamra łukowa	!	!	!
24f#X\LL	.	24a/LL	.	8dd\	.
24g\	.	24b-/	.	.	.
24f#\JJ	.	24a/JJ	.	.	.
8f#\L	.	8a/L	.	8ddd\	.
8f#\J	.	8a/J	.	8dd\J	.
!	!	!	!	!LO:LB:g=original	!
=35	=35	=35	=35	=35	=35
*	*	*	*	*xywh-#6:515,2717,3383,463	*
8r	.	8r	.	4.dd\	.
8f#X\	.	8a/	.	.	.
8f#\L	.	8a/L	.	.	.
!	!	!LO:SIC:s=8a/J:v	!	!	!
8f#\J	.	8a/	.	24dd\LL	.
.	.	.	.	24ee-\	.
.	.	.	.	24dd\JJ	.
!	!	!LO:SIC:s=8b-/L:v	!	!	!
8g\L	.	8b-/	.	8cc#X\L	.
8g\J	.	8b-/J	.	8cc#\J	.
!LO:LB:g=original	!	!	!	!	!
=36	=36	=36	=36	=36	=36
*xywh-#63:360,1850,3376,439	*	*	*	*	*
8f#X\L	.	4a/	.	8dd/L	.
16d\L	.	.	.	16a/L	.
16A\JJ	.	.	.	16f#X/JJ	.
8D/L	.	8f#XL 8A/	.	8d/L	.
16AA/L	.	8f#J 8A/	.	8dd/	.
!LO:SIC:s=16FF#/JJ:v	!	!	!	!	!
16FF/JJ	.	.	.	.	.
!LO:TX:t=P:problem:mixed beam	!	!	!	!	!
8DD/L	.	4f# 4A/	.	8d/	.
8D\J	.	.	.	8d/J	.
!	!	!LO:LB:g=original	!	!	!
=37	=37	=37	=37	=37	=37
*	*	*xywh-#41:621,1827,3370,370	*	*	*
!	!	!	!LO:DY:t= :mod=%s	!	!
!	!	!	!LO:MO:mod=!LO&colon;DY&colon;ed=brack	!	!
!	!	!	!null	!	!
4GG/	p	8B-/L	p	4.g/	p
.	.	8c/	.	.	.
4r	.	8d/	.	.	.
.	.	8c/	.	8a/L	.
4r	.	8d/	.	8b-/	.
.	.	8B-/J	.	8g/J	.
=38	=38	=38	=38	=38	=38
4FF#X/	.	8A/L	.	8a/	.
.	.	8B-/	.	4a/	.
4r	.	8c/	.	.	.
.	.	8B-/J	.	16a/LL	.
.	.	.	.	16b-/JJ	.
4D\	.	8c/L	.	8a\L	.
.	.	8A/J	.	8dd\J	.
=39	=39	=39	=39	=39	=39
4G\	.	8B-/L	.	8dd\	.
.	.	8c/	.	4b-\	.
4GG/	.	8d/	.	.	.
.	.	8B-/J	.	8dd\	.
4D\	.	8c/L	.	8a\L	.
.	.	8c/J	.	16dd\L	.
.	.	.	.	16b-\JJ	.
=40	=40	=40	=40	=40	=40
8G\L	.	8B-/L	.	16g/LL	.
.	.	.	.	16d/	.
8F#X\	.	16B-/L	.	16b-/	.
.	.	16c/JJ	.	16a/JJ	.
.	.	8qqc/	.	8qqa/	.
8G\	.	2B-/	.	2g/	.
8D\J	.	.	.	.	.
4GG/	.	.	.	.	.
!	!	!	!	!LO:LB:g=original	!
=41	=41	=41	=41	=41	=41
*	*	*	*	*xywh-#6:530,3060,3399,438	*
8r	.	8r	.	4.dd\	p
!	!LO:DY:b:t=F	!	!LO:DY:b:t=F	!	!
(8d\L	f	(8f#X/L	f	.	.
8en\	.	8g/	.	.	.
8f#X\J)	.	8a/J)	.	24dd\LL	.
.	.	.	.	24ee-\	.
.	.	.	.	24dd\JJ	.
4g\	.	4b-X\	.	8cc#X\L	.
.	.	.	.	8cc#\J	.
=42	=42	=42	=42	=42	=42
8f#X\	.	8a/	.	8dd\L	.
8r	.	8r	.	16ff#X\L	.
.	.	.	.	16aa\JJ	.
8d\L	.	8f#X/L	.	8ddd\L	.
16A\L	.	16a/L	.	8dd\	.
!LO:SIC:s=16F#\JJ:v	!	!	!	!	!
16F\JJ	.	16dd/JJ	.	.	.
!	!	!LO:SIC:s=8ff#\L:v	!	!	!
8D\L	.	8ff\L	.	8ddd\	.
8d\J	.	8f#/J	.	8dd\J	.
=43	=43	=43	=43	=43	=43
8r	.	8r	.	4.dd\	.
(8d\L	.	(8f#X/L	.	.	.
8en\	.	8g/	.	.	.
8f#X\J)	.	8a/J)	.	24dd\LL	.
.	.	.	.	24ee-\	.
.	.	.	.	24dd\JJ	.
4g\	.	4b-\	.	8cc#X\L	.
.	.	.	.	8cc#\J	.
!LO:LB:g=original	!	!	!	!	!
=44	=44	=44	=44	=44	=44
*xywh-#63:361,2172,3408,416	*	*	*	*	*
8f#X\	.	8a/	.	8dd/L	.
8r	.	8r	.	16a/L	.
.	.	.	.	16f#X/JJ	.
8d\L	.	4r	.	8d/L	.
16A\L	.	.	.	8dd/	.
!LO:SIC:s=16F#\JJ:v	!	!	!	!	!
16F\JJ	.	.	.	.	.
8D\L	.	4r	.	8d/	.
8D\J	.	.	.	8d/J	.
=45	=45	=45	=45	=45	=45
4GG/	p	(16d/LL	p	4.g/	p
.	.	16e-X/	.	.	.
.	.	16d/	.	.	.
.	.	16c/JJ)	.	.	.
8G\L	.	8B-/L	.	.	.
8F#X\	.	8d/	.	8a/L	.
8G\	.	8B-/	.	8b-/	.
8GG/J	.	8d/J	.	8g/J	.
!	!	!LO:LB:g=original	!	!LO:LB:g=original	!
=46	=46	=46	=46	=46	=46
*	*	*xywh-#41:633,2081,3355,446	*	*xywh-#6:509,3437,3436,457	*
4DD/	.	(16c/LL	.	8a/	.
.	.	16d/	.	.	.
.	.	16c/	.	4a/	.
.	.	16B-/JJ)	.	.	.
!LO:TX:t=P:problem:mixed beam	!	!	!	!	!
8D\L	.	8A/L	.	.	.
8DD/	.	8c/	.	16a/LL	.
.	.	.	.	16b-/JJ	.
8D\	.	8A/	.	8a\L	.
8DD/J	.	8c/J	.	8dd\J	.
=47	=47	=47	=47	=47	=47
4GG/	.	(16d/LL	.	8dd\	.
.	.	16e-/	.	.	.
.	.	16d/	.	4b-\	.
.	.	16c/JJ)	.	.	.
8G\L	.	8B-/L	.	.	.
8GG/J	.	8d/	.	8dd\	.
8D/L	.	8B-/	.	8a\L	.
8DD/J	.	8d/J	.	16a\L	.
.	.	.	.	16b-\JJ	.
=48	=48	=48	=48	=48	=48
8GG/L	.	8B-/L	.	(16g/LL	.
.	.	.	.	16d/)	.
8D/J	.	16B-/L	.	16b-`/	.
.	.	16c/JJ	.	16a`/JJ	.
8G\L	.	4c/	.	(4a/	.
8D\J	.	.	.	.	.
8GG/	.	8B-/	.	8g/)	.
8r	.	8r	.	24dd\LL	.
.	.	.	.	24een\	.
.	.	.	.	24dd\JJ	.
!!LO:MO:ori
=49	=49	=49	=49	=49	=49
!!LO:MO:end
!!LO:MO:mod
!! =49||	=49||	=49||	=49||	=49||	=49||
!!LO:MO:end
*k[f#]	*	*k[f#]	*	*k[f#]	*
!LO:MO:mod=!null:null	!	!LO:MO:mod=!null:null	!	!LO:MO:mod=!null:null	!
!LO:TX:a:t=Majeur	!	!LO:TX:a:t=Majeur	!	!LO:TX:a:t=Majeur	!
4DD/	.	8A/L	.	4.cc\	.
.	.	8c/	.	.	.
4D\	.	8A/	.	.	.
.	.	8c/	.	(8b'/L	.
4D\	.	8A/	.	8a'/	.
.	.	8c/J	.	8g'/J	.
=50	=50	=50	=50	=50	=50
4DD/	.	8A/L	.	8f#'/L	.
.	.	8c/	.	8e'/	.
4D\	.	8A/	.	8f#'/	.
.	.	8c/	.	8d'/	.
4D\	.	8A/	.	8e'/	.
.	.	8c/J	.	8f#'/J)	.
!	!	!	!	!LO:LB:g=original	!
=51	=51	=51	=51	=51	=51
*	*	*	*	*xywh-#6:521,3774,3427,398	*
4GG/	.	8B/L	.	4.g/	.
.	.	8d/	.	.	.
4G\	.	8B/	.	.	.
.	.	8d/	.	(16g/LL	.
.	.	.	.	16b/JJ)	.
4D\	.	8c/	.	8a`/L	.
.	.	8f#/J	.	(16a/L	.
.	.	.	.	16cc/JJ)	.
=52	=52	=52	=52	=52	=52
*	*	*^	*	*	*
4G\	.	8r	8ryyyy	.	(2b\	.
.	.	8d/L	8ryyyy	.	.	.
4GG/	.	8d/	4.B\	.	.	.
.	.	8d/J	.	.	.	.
4r	.	8d 8B/	.	.	8gg\)	.
!	!	!LO:TUP:a:problem:klamra łukowa	!	!	!	!
.	.	24dd\LL	8ryyyy	.	8r	.
.	.	24ee\	.	.	.	.
.	.	24dd\JJ	.	.	.	.
*	*	*v	*v	*	*	*
!LO:LB:g=original	!	!	!	!	!
=53	=53	=53	=53	=53	=53
*xywh-#63:361,2475,3414,413	*	*	*	*	*
8D\L	p	4.cc\	.	4.ff#\	.
8A\	.	.	.	.	.
8D\	.	.	.	.	.
8d\	.	8b/L	.	16ff#\LL	.
.	.	.	.	16gg\JJ	.
8c\	.	8a/	.	8aa\L	.
8B\J	.	8g/J	.	8bb\J	.
!	!	!LO:LB:g=original	!	!	!
=54	=54	=54	=54	=54	=54
*	*	*xywh-#41:583,2395,3405,380	*	*	*
8A\L	.	8f#'/L	.	4.ccc\	.
8G\	.	8e'/	.	.	.
8A\	.	8f#'/	.	.	.
8F#\	.	8d'/	.	16ccc\LL	.
.	.	.	.	16ddd\JJ	.
8G\	.	8e'/	.	8ccc\L	.
8A\J	.	8f#'/J	.	8aa\J	.
=55	=55	=55	=55	=55	=55
!LO:SIC:s=8G\L:v	!	!	!	!	!
8F#\L	.	4.g/	.	4.bb\	.
8B\J	.	.	.	.	.
8d\	.	.	.	.	.
4D\	.	16g/LL	.	16bb\LL	.
.	.	16b/JJ	.	16ddd\JJ	.
.	.	8a/L	.	8ccc\L	.
8d\	.	16a/L	.	16ccc\L	.
.	.	16b/JJ	.	16ddd\JJ	.
=56	=56	=56	=56	=56	=56
4G\	.	8g/L	.	8bb\L	.
.	.	16g/L	.	16ddd\L	.
.	.	16b/JJ	.	16ccc\JJ	.
!	!	!LO:SIC:s=(8a/:v	!	!	!
8D\L	.	8a/	.	(8ccc\	.
!	!	!LO:SIC:s=4g/):v	!	!	!
8d\J	.	4g/	.	4bb\)	.
8G\	.	.	.	.	.
!	!	!LO:TUP:a:problem:klamra łukowa	!	!	!
8r	.	24dd\LL	.	8r	.
.	.	24cc#X\	.	.	.
.	.	24dd\JJ	.	.	.
=57	=57	=57	=57	=57	=57
*	*	*	*	*8va	*
!LO:TX:t=P:problem:mixed beam	!LO:DY:b:t=F	!	!	!	!
8GG/L	f	4.ee\	.	16aa\LL	.
.	.	.	.	16ccc#X\	.
8g\J	.	.	.	16eee\	.
.	.	.	.	16ccc#\JJ	.
*tremolo	*	*	*	*	*
8g\L	.	.	.	16ggg\LL	.
.	.	.	.	16eee\	.
8g\	.	8dd\L	.	16ccc#\	.
.	.	.	.	16aa\JJ	.
8g\	.	8cc#X\	.	16gg/LL	.
.	.	.	.	16aa/	.
8g\J	.	8a\J	.	16ee/	.
.	.	.	.	16aa/JJ	.
!	!	!	!	!LO:LB:g=original	!
*Xtremolo	*	*	*	*	*
=58	=58	=58	=58	=58	=58
*	*	*	*	*xywh-#6:509,4083,3405,485	*
4f#X\	.	8dd\L	.	16ff#\LL	.
.	.	.	.	16aa\	.
.	.	16ff#\L	.	16ddd\	.
.	.	16aa\JJ	.	16eee\JJ	.
4r	.	8ddd\L	.	16fff#\LL	.
.	.	.	.	16eee\	.
.	.	8dd\	.	16ddd\	.
.	.	.	.	16ccc#X\JJ	.
4r	.	8ddd\	.	16bb/LL	.
.	.	.	.	16aa/	.
.	.	8dd\J	.	16gg/	.
.	.	.	.	16ff#/JJ	.
=59	=59	=59	=59	=59	=59
(24B-X\LL	.	4.ee\	.	16gg\LL	.
24c#X\	.	.	.	.	.
.	.	.	.	16aa\	.
24B-\J	.	.	.	.	.
8A\J)	.	.	.	16ccc#X\	.
.	.	.	.	16eee\JJ	.
8AA/L	.	.	.	16ggg\LL	.
.	.	.	.	16eee\	.
8A\	.	8dd\L	.	16ccc#\	.
.	.	.	.	16aa\JJ	.
8AA/	.	8cc#X\	.	16gg/LL	.
.	.	.	.	16aa/	.
8A\J	.	8a\J	.	16ee/	.
.	.	.	.	16aa/JJ	.
=60	=60	=60	=60	=60	=60
8D\L	.	4dd\	.	16ff#\LL	.
.	.	.	.	16aa\	.
16F#X\L	.	.	.	16bb\	.
16A\JJ	.	.	.	16ccc#X\JJ	.
4.d\	.	4r	.	16ddd\LL	.
.	.	.	.	16eee\	.
.	.	.	.	16fff#\	.
.	.	.	.	16ggg\JJ	.
.	.	4r	.	4aaa\	.
!LO:TUP:a:problem:klamra łukowa	!	!	!	!	!
24d\LL	.	.	.	.	.
24c#X\	.	.	.	.	.
24d\JJ	.	.	.	.	.
!LO:LB:g=original	!	!	!	!	!
=61	=61	=61	=61	=61	=61
*xywh-#63:351,2772,3386,404	*	*	*	*	*
!	!	!LO:TUP:a:problem:klamra łukowa	!	!	!
4.e\	.	24b-X\LL	.	16aa\LL	.
.	.	24cc#X\	.	.	.
.	.	.	.	16ccc#X\	.
.	.	24b-\J	.	.	.
.	.	8a`\J	.	16eee\	.
.	.	.	.	16ccc#\JJ	.
.	.	(8aa\L	.	16ggg\LL	.
.	.	.	.	16fff#\	.
8d\	.	8a/)	.	16eee\	.
.	.	.	.	16ddd\JJ	.
8c#X\L	.	(8aa\	.	16ccc#\LL	.
.	.	.	.	16bb\	.
8A\J	.	[8a/J)	.	16aa\	.
.	.	.	.	16gg\JJ	.
!	!	!	!	!LO:LB:g=original	!
=62	=62	=62	=62	=62	=62
*	*	*	*	*xywh-#6:503,4448,3436,565	*
8d\L	.	4a/]	.	16ff#\LL	.
.	.	.	.	16aa\	.
16A\L	.	.	.	16ddd\	.
16F#\JJ	.	.	.	16eee\JJ	.
8D\L	.	4r	.	16fff#\LL	.
.	.	.	.	16eee\	.
8d\	.	.	.	16ddd\	.
.	.	.	.	16ccc#X\JJ	.
8D\	.	8rdd	.	16bb\LL	.
.	.	.	.	16aa\	.
[8d\J	.	8a/	.	16gg\	.
.	.	.	.	16ff#\JJ	.
!	!	!LO:LB:g=original	!	!	!
=63	=63	=63	=63	=63	=63
*	*	*xywh-#41:592,2731,3395,370	*	*	*
!	!	!LO:TUP:a:problem:klamra łukowa	!	!	!
8d\]	.	24b-X\LL	.	16gg\LL	.
.	.	24cc#X\	.	.	.
.	.	.	.	16aa\	.
.	.	24b-\J	.	.	.
4e\	.	8a`\J	.	16ccc#X\	.
.	.	.	.	16eee\JJ	.
.	.	(8aa\L	.	16ggg\LL	.
.	.	.	.	16eee\	.
8d\	.	8a/)	.	16ccc#\	.
.	.	.	.	16aa\JJ	.
8c#X\L	.	(8aa\	.	16gg/LL	.
.	.	.	.	16aa/	.
8A\J	.	(8a/J)	.	16ee/	.
.	.	.	.	16aa/JJ	.
*	*	*	*	*X8va	*
=64	=64	=64	=64	=64	=64
!	!	!	!LO:DY:t= :mod=%s	!	!
!	!	!	!LO:MO:mod=!LO&colon;DY&colon;ed=	!LO:MO:mod=!null:null	!
!	!	!	!null	!LO:TX:a:i:t=loco	!
8d\L	>	8a/L	p	8ff#\L	.
!	!	!	!LO:MO:mod=.	!	!
8e\	.	8g'/)	p	8ee\J	.
8f#\	.	8a'/	.	4dd\	.
8g\J	.	8b'/J	.	.	.
8a\	.	8ccn\	.	8ddd\L	.
!	!	!LO:TUP:a:problem:klamra łukowa	!	!	!
8r	]]	24dd\LL	.	8ddd\J	.
.	.	24ee\	.	.	.
.	.	24dd\JJ	.	.	.
=65	=65	=65	=65	=65	=65
8D\L	p	4.cc\	.	[2.dddT\	.
8G#X\	.	.	.	.	.
8A\	.	.	.	.	.
8Gn\	.	8b/L	.	.	.
8cn\	.	8a/	.	.	.
8B\J	.	8g/J	.	.	.
=66	=66	=66	=66	=66	=66
8A\L	.	8f#/L	.	2.dddT\_	.
8G\	.	8e/	.	.	.
8A\	.	8f#/	.	.	.
8F#\	.	8d/	.	.	.
8G\	.	8e/	.	.	.
8A\J	.	8f#/J	.	.	.
=67	=67	=67	=67	=67	=67
8B\L	.	4.g/	.	2.dddT\_	.
8A\	.	.	.	.	.
8B\	.	.	.	.	.
8G\	.	16g/LL	.	.	.
.	.	16b/JJ	.	.	.
8F#\	.	8a\L	.	.	.
8D\J	.	16a\L	.	.	.
.	.	16cc\JJ	.	.	.
!LO:LB:g=original	!	!	!	!	!
=68	=68	=68	=68	=68	=68
*xywh-#63:351,3082,3424,407	*	*	*	*	*
8G\L	.	(2b\	.	2dddT\_	.
8F#\	.	.	.	.	.
8G\	.	.	.	.	.
8GG/J	.	.	.	.	.
8G\L	.	8gg`\)	.	8ddd\L]	.
!	!	!	!	!LO:TUP:a:problem:klamra łukowa	!
8B\J	.	8r	.	24ddd\L	.
.	.	.	.	24eee\	.
.	.	.	.	24ddd\JJ	.
!	!	!	!	!LO:LB:g=original	!
=69	=69	=69	=69	=69	=69
*	*	*	*	*xywh-#7:344,529,3478,607	*
[2.dT\	.	8a/L	.	4.cccn\	.
.	.	8g#X/	.	.	.
.	.	8a/	.	.	.
.	.	8gn/	.	(8bb'\L	.
.	.	8cc/	.	8aa'\	.
.	.	8b/J	.	8gg'\J	.
=70	=70	=70	=70	=70	=70
2.dT\]	.	8a/L	.	8ff#'\L	.
.	.	8g/	.	8ee'\	.
.	.	8a/	.	8ff#'\	.
.	.	8f#/	.	8dd'\	.
.	.	8g/	.	8ee'\	.
.	.	8a/J	.	8ff#'\J)	.
=71	=71	=71	=71	=71	=71
4dT\	.	4.b\	.	4.gg\	.
8B\L	.	.	.	.	.
8G\J	.	(16b\LL	.	(16gg\LL	.
.	.	16dd\JJ)	.	16bb\JJ)	.
4F#\	.	8cc`\L	.	8aa`\L	.
.	.	(16cc\L	.	(16aa\L	.
.	.	16dd\JJ)	.	16bb\JJ)	.
!	!	!LO:LB:g=original	!	!	!
=72	=72	=72	=72	=72	=72
*	*	*xywh-#41:545,3036,3449,364	*	*	*
!	!	!	!	!	!
8G\L	.	4b/	.	[4gg\	.
8D\	.	.	.	.	.
8G\	.	8bL 8d/	.	16gg\LL]	.
.	.	.	.	(16bb\	.
8GG/J	.	8bJ 8d/	.	16ddd\	.
.	.	.	.	16bb\JJ	.
8G\	.	8b 8d/	.	8gg\L)	.
8r	.	8r	.	8d/J	.
!!LO:MO:ori
=73	=73	=73	=73	=73	=73
!!LO:MO:end
!!LO:MO:mod
!! =73||	=73||	=73||	=73||	=73||	=73||
!!LO:MO:end
*k[b-e-]	*	*k[b-e-]	*	*k[b-e-]	*
!	!	!	!	!LO:MO:mod=!LO&colon;TX&colon;a&colon;i&colon;t=Dolce	!
!	!	!	!	!LO:TX:b:i:t=dol	!
!LO:MO:mod=!null:null	!	!LO:MO:mod=!null:null	!	!LO:MO:mod=!null:null	!
!LO:TX:a:t=Maneur	!	!LO:TX:a:t=Mineur	!	!LO:TX:a:t=Mineur	!
4GG/	p	(8d/L	.	4.g/	.
.	.	8e-X/	.	.	.
4G\	.	8d/	.	.	.
.	.	8c/J)	.	8a/L	.
4r	.	8d/L	.	8b-/	.
.	.	8B-/J	.	8g/J	.
!	!	!	!	!LO:LB:g=original	!
=74	=74	=74	=74	=74	=74
*	*	*	*	*xywh-#7:405,977,3433,451	*
4F#X\	.	8c/L	.	8a/	.
.	.	8d/	.	4a/	.
4r	.	8c/	.	.	.
.	.	8d/J	.	16a/LL	.
.	.	.	.	16b-/JJ	.
4D\	.	8c/L	.	8a\L	.
.	.	8c/J	.	[8dd\J	.
=75	=75	=75	=75	=75	=75
4G\	.	8B-/	.	8dd\]	.
.	.	4d/	.	4b-\	.
4r	.	.	.	.	.
.	.	8B-/	.	8dd\	.
4F#X\	.	8c/L	.	8a\L	.
.	.	8c/J	.	8dd\J	.
=76	=76	=76	=76	=76	=76
.	.	.	.	8qqcc/	.
4G\	.	8B-/L	.	8b-/L	.
.	.	8d/	.	16a/L	.
.	.	.	.	16b-/JJ	.
4r	.	8B-/	.	4g/	.
.	.	8d/	.	.	.
4r	.	8B-/	.	4r	.
.	.	8d/J	.	.	.
=77	=77	=77	=77	=77	=77
!	!	!LO:MO:mod=!LO&colon;TX&colon;a&colon;i&colon;t=Dolce	!	!	!
!	!	!LO:TX:b:i:t=dol	!	!	!
(8B-\L	.	4.g/	.	8ddd\L	.
8c\	.	.	.	8eee-X\	.
8B-\	.	.	.	8ddd\	.
8A\J)	.	8a/L	.	8ccc#X\J	.
8G\L	.	8b-/	.	8ddd\L	.
8B-\J	.	8g/J	.	16bb-\L	.
.	.	.	.	16gg\JJ	.
!LO:LB:g=original	!	!	!	!	!
=78	=78	=78	=78	=78	=78
*xywh-#63:361,3394,3376,426	*	*	*	*	*
8r	.	8a/	.	8ff#X\L	.
8c\	.	4a/	.	8ddd\	.
8r	.	.	.	8ccc#X\	.
8A\	.	(16a/LL	.	8ddd\J	.
.	.	16b-/JJ)	.	.	.
8r	.	8a'\L	.	8cccn\L	.
8F#X\	.	8dd'\J	.	8aa\J	.
!	!	!	!	!LO:LB:g=original	!
=79	=79	=79	=79	=79	=79
*	*	*	*	*xywh-#7:374,1345,3410,436	*
4G\	.	4.b-\	.	8gg\L	.
.	.	.	.	8ddd\	.
4GG/	.	.	.	8bb-\	.
.	.	8dd\	.	8gg\J	.
4D\	.	8a\L	.	8ff#X\L	.
.	.	8dd\J	.	8aa\J	.
=80	=80	=80	=80	=80	=80
4G\	.	(16dd\LL	.	8bb-\L	.
.	.	16cc\	.	.	.
.	.	16b-\	.	16ddd\L	.
.	.	16a\JJ)	.	16ccc\JJ	.
8r	.	(4a/	.	4ccc\	.
8D\	.	.	.	.	.
4G\	.	4g/)	.	4bb-\	.
=81	=81	=81	=81	=81	=81
!	!LO:DY:b:t=F	!	!LO:DY:b:t=F	!	!
8D\L	f	4.dd\	f	24ddd\LL	.
.	.	.	.	24aa\	.
.	.	.	.	24ff#X\	.
8f#X\J	.	.	.	24dd\	.
.	.	.	.	24a\	.
!	!	!	!	!LO:SIC:s=24f#\JJ:v	!
.	.	.	.	24f\JJ	.
8f#\L	.	.	.	24d/LL	.
!	!	!	!	!LO:SIC:s=24f#/:v	!
.	.	.	.	24f/	.
.	.	.	.	24a/	.
!	!	!LO:MO:mod=*null:null	!	!	!
*	*	*Xtuplet	*	*	*
!	!	!LO:TUP:a:problem:klamra łukowa	!	!	!
8f#\J	.	24dd\LL	.	24dd/	.
.	.	24een\	.	24ff#/	.
.	.	24dd\JJ	.	24aa/JJ	.
8en\L	.	8cc#X\L	.	24bb-LL 24gg\	.
.	.	.	.	24gg 24een\	.
.	.	.	.	24bb- 24gg\	.
8e\J	.	8cc#\J	.	24bb- 24gg\	.
.	.	.	.	24gg 24ee\	.
.	.	.	.	24bb-JJ 24gg\	.
!	!	!LO:LB:g=original	!	!	!
=82	=82	=82	=82	=82	=82
*	*	*xywh-#41:611,3309,3411,395	*	*	*
4f#X\	.	8dd\L	.	8aa 8ff#X\	.
.	.	16ff#X\L	.	4ff# 4dd\	.
.	.	16aa\JJ	.	.	.
8D/L	.	8ddd\L	.	.	.
16AA/L	.	8dd\	.	8ddL 8a/	.
!LO:SIC:s=16FF#/JJ:v	!	!	!	!	!
16FF/JJ	.	.	.	.	.
!LO:TX:t=P:problem:mixed beam	!	!	!	!	!
!	!	!	!	!LO:SIC:s=8a 8f#/:v	!
8DD/L	.	8ddd\	.	8a 8f/	.
!	!	!	!	!LO:SIC:s=8f#J 8d/:v	!
8D\J	.	8dd\J	.	8fJ 8d/	.
!	!	!	!	!LO:LB:g=original	!
=83	=83	=83	=83	=83	=83
*	*	*	*	*xywh-#7:393,1683,3418,478	*
!	!	!	!	!	!LO:DY:b:t=F
8D\L	.	4.dd\	.	24ddd\LL	f
.	.	.	.	24aa\	.
.	.	.	.	24ff#X\	.
8f#X\J	.	.	.	24dd\	.
.	.	.	.	24a\	.
!	!	!	!	!LO:SIC:s=24f#\JJ:v	!
.	.	.	.	24f\JJ	.
8f#\L	.	.	.	24d/LL	.
!	!	!	!	!LO:SIC:s=24f#/:v	!
.	.	.	.	24f/	.
.	.	.	.	24a/	.
*	*	*tuplet	*	*	*
!	!	!LO:TUP:a:problem:klamra łukowa	!	!	!
8f#\J	.	24dd\LL	.	24dd/	.
.	.	24een\	.	24ff#/	.
.	.	24dd\JJ	.	24aa/JJ	.
8en\L	.	8cc#X\L	.	24bb-LL 24gg\	.
.	.	.	.	24gg 24een\	.
.	.	.	.	24bb- 24gg\	.
8e\J	.	8cc#\J	.	24bb- 24gg\	.
.	.	.	.	24gg 24ee\	.
.	.	.	.	24bb-JJ 24gg\	.
=84	=84	=84	=84	=84	=84
4d\	.	8dd/L	.	8aaL 8ff#X\	.
.	.	16a/L	.	8ff# 8dd\	.
.	.	16f#X/JJ	.	.	.
8D/L	.	8d/L	.	8dd 8a\	.
!	!	!	!	!LO:SIC:s=8aJ 8f#\:v	!
16AA/L	.	8dd\	.	8aJ 8f\	.
!LO:SIC:s=16FF#/JJ:v	!	!	!	!	!
16FF/JJ	.	.	.	.	.
!	!	!	!	!LO:SIC:s=4f# 4d/:v	!
4DD/	.	8d/	.	4f 4d/	.
.	.	8dd\J	.	.	.
=85	=85	=85	=85	=85	=85
[2.G\	p	8b-X\L	.	4.gg\	p
.	.	8dd\	.	.	.
.	.	8b-\	.	.	.
.	.	8dd\	.	8aa\L	.
.	.	8b-\	.	8bb-\	.
.	.	8dd\J	.	8gg\J	.
=86	=86	=86	=86	=86	=86
4G\]	.	8cc\L	.	8aa\	.
.	.	8ee-X\	.	4aa\	.
4F#X\	.	8cc\	.	.	.
.	.	8dd\	.	16aa\LL	.
.	.	.	.	16bb-\JJ	.
4D\	.	8cc\	.	8aa\L	.
.	.	8dd\J	.	[8ddd\J	.
!LO:LB:g=original	!	!	!	!LO:LB:g=original	!
=87	=87	=87	=87	=87	=87
*xywh-#63:342,3675,3496,423	*	*	*	*xywh-#7:389,2017,3414,493	*
4G\	.	8b-/L	.	8ddd\]	.
.	.	8dd/	.	4bb-\	.
4GG/	.	8g/	.	.	.
.	.	8b-/	.	8ddd\	.
4D\	.	8f#X/	.	8aa\L	.
.	.	8a/J	.	8ddd\J	.
=88	=88	=88	=88	=88	=88
!	!	!	!	!LO:SIC:s=(16ddd\LL:v	!
4G\	.	(16b-\LL	.	16ddd\LL	.
.	.	16cc\	.	16ccc\	.
.	.	16dd\	.	16bb-\	.
!	!	!	!	!LO:SIC:s=16aa\JJ):v	!
.	.	16cc\JJ)	.	16aa\JJ	.
8r	.	(4cc\	.	(4aa\	.
8D\	.	.	.	.	.
4G\	.	4b-\)	.	4gg\)	.
=89	=89	=89	=89	=89	=89
!	!LO:DY:b:t=F	!	!LO:DY:b:t=F	!	!
4.d\	f	8a\L	f	24ddd\LL	.
.	.	.	.	24aa\	.
.	.	.	.	24ff#X\	.
.	.	8ff#X\	.	24dd\	.
.	.	.	.	24a\	.
!	!	!	!	!LO:SIC:s=24f#\JJ:v	!
.	.	.	.	24f\JJ	.
.	.	8a\	.	24d/LL	.
!	!	!	!	!LO:SIC:s=24f#/:v	!
.	.	.	.	24f/	.
.	.	.	.	24a/	.
!LO:TUP:a:problem:klamra łukowa	!	!	!	!	!
24d\LL	.	8ff#\J	.	24dd/	.
24en\	.	.	.	24ff#/	.
24d\JJ	.	.	.	24aa/JJ	.
8c#X\L	.	8een\L	.	24bb-LL 24gg\	.
.	.	.	.	24gg 24een\	.
.	.	.	.	24bb- 24gg\	.
8c#\J	.	8ee\J	.	24bb- 24gg\	.
.	.	.	.	24gg 24ee\	.
.	.	.	.	24bb-JJ 24gg\	.
!	!	!LO:LB:g=original	!	!	!
=90	=90	=90	=90	=90	=90
*	*	*xywh-#41:570,3611,3455,433	*	*	*
8d\L	.	4dd\	.	8aa 8ff#X\	.
24D\L	.	.	.	4ff# 4dd\	.
24F#X\	.	.	.	.	.
24A\JJ	.	.	.	.	.
8d\L	.	4r	.	.	.
8D\	.	.	.	8ddL 8a/	.
!	!	!	!	!LO:SIC:s=8a 8f#/:v	!
8d\	.	4r	.	8a 8f/	.
!	!	!	!	!LO:SIC:s=8f#J 8d/:v	!
8D\J	.	.	.	8fJ 8d/	.
!	!	!	!	!LO:LB:g=original	!
=91	=91	=91	=91	=91	=91
*	*	*	*	*xywh-#7:370,2389,3459,497	*
4.d\	.	8a\L	.	24ddd\LL	.
.	.	.	.	24aa\	.
.	.	.	.	24ff#X\	.
.	.	8ff#X\	.	24dd\	.
.	.	.	.	24a\	.
!	!	!	!	!LO:SIC:s=24f#\JJ:v	!
.	.	.	.	24f\JJ	.
.	.	8a\	.	24d/LL	.
!	!	!	!	!LO:SIC:s=24f#/:v	!
.	.	.	.	24f/	.
.	.	.	.	24a/	.
!LO:TUP:a:problem:klamra łukowa	!	!	!	!	!
24d\LL	.	8ff#\J	.	24dd/	.
24en\	.	.	.	24ff#/	.
24d\JJ	.	.	.	24aa/JJ	.
8c#X\L	.	8een\L	.	24bb-LL 24gg\	.
.	.	.	.	24gg 24een\	.
.	.	.	.	24bb- 24gg\	.
8c#\J	.	8ee\J	.	24bb- 24gg\	.
.	.	.	.	24gg 24ee\	.
.	.	.	.	24bb-JJ 24gg\	.
=92	=92	=92	=92	=92	=92
!LO:TX:t=P:problem:mixed beam	!	!	!	!	!
8d\L	.	4dd\	.	8aaL 8ff#X\	.
8D/J	.	.	.	8ff# 8dd\	.
4d\	.	4r	.	8dd 8a\	.
!	!	!	!	!LO:SIC:s=8aJ 8f#\:v	!
.	.	.	.	8aJ 8f\	.
!	!	!	!	!LO:SIC:s=4f# 4d/:v	!
4r	.	4r	.	4f 4d/	.
=93	=93	=93	=93	=93	=93
!	!LO:DY:t= :mod=%s	!	!	!	!
!	!LO:MO:mod=!LO&colon;DY&colon;ed=brack	!	!	!	!
!	!null	!	!	!	!
4.G\	p	(8dd\L	p	(16d/LL	p
.	.	.	.	16g/)	.
.	.	8ee-X\	.	(16g/	.
.	.	.	.	16b-/JJ)	.
.	.	8cc\	.	(16b-\LL	.
.	.	.	.	16dd\)	.
8A\L	.	8cc#X\J)	.	(16dd\	.
.	.	.	.	16gg\JJ)	.
8B-\	.	8dd`\L	.	(16gg\LL	.
.	.	.	.	16bb-\)	.
8G\J	.	(16b-\L	.	(16bb-\	.
.	.	16g\JJ)	.	16ddd\JJ)	.
!	!	!	!	!LO:LB:g=original	!
=94	=94	=94	=94	=94	=94
*	*	*	*	*xywh-#7:370,2739,3459,478	*
8A\	.	(8f#X\L	.	(16ddd\LL	.
.	.	.	.	16ccc\)	.
4A\	.	8dd\	.	(16ccc\	.
.	.	.	.	16aa\JJ)	.
.	.	8cc#X\	.	(16aa\LL	.
.	.	.	.	16ff#X\)	.
16A\LL	.	8dd\J)	.	(16ff#\	.
16B-\JJ	.	.	.	16dd\JJ)	.
8A\L	.	(8ccn\L	.	(16dd\LL	.
.	.	.	.	16ee-X\)	.
8d\J	.	8a\J)	.	(16dd\	.
.	.	.	.	16cc\JJ)	.
!LO:LB:g=original	!	!	!	!	!
=95	=95	=95	=95	=95	=95
*xywh-#63:329,4029,3430,391	*	*	*	*	*
4.B-\	.	8g\L	.	16b-\LL	.
.	.	.	.	16dd\	.
.	.	8dd\	.	16dd\	.
.	.	.	.	16gg\JJ	.
.	.	8b-\	.	16dd\LL	.
.	.	.	.	16gg\	.
8d\	.	8g\J	.	16gg\	.
.	.	.	.	16bb-\JJ	.
8A\L	.	4f#X/	.	16dd\LL	.
.	.	.	.	16ddd\	.
8d\J	.	.	.	16ccc\	.
.	.	.	.	16aa\JJ	.
=96	=96	=96	=96	=96	=96
8G\L	.	8b-\L	.	16ddd\LL	.
.	.	.	.	16bb-\	.
16A\L	.	(16cc\L	.	16aa\	.
16F#X\JJ	.	16a\JJ)	.	16ccc\JJ	.
8G\L	.	(4a/	.	16bb-\LL	.
.	.	.	.	16gg\	.
8D\J	.	.	.	16ff#X\	.
.	.	.	.	16aa\JJ	.
8G\	.	8b-/)	.	8gg\	.
!	!	!	!	!	!LO:MO:mod=.
8r	.	8r	.	24dd\LL	p
.	.	.	.	24een\	.
.	.	.	.	24dd\JJ	.
!	!	!	!	!LO:LB:g=original	!
=97||	=97||	=97||	=97||	=97||	=97||
*	*	*	*	*xywh-#7:408,3069,3436,448	*
*k[f#]	*	*k[f#]	*	*k[f#]	*
!LO:MO:mod=!null:null	!	!LO:MO:mod=!null:null	!	!LO:MO:mod=!null:null	!
!LO:TX:a:t=Majeur	!	!LO:TX:a:t=Majeur	!	!LO:TX:a:t=Majeur	!
!	!LO:DY:t= :mod=%s	!	!	!	!LO:DY:t= :mod=%s
!	!LO:MO:mod=!LO&colon;DY&colon;ed=brack	!	!	!	!LO:MO:mod=!LO&colon;DY&colon;ed=
!	!null	!	!	!	!null
4DD/	p	8A/L	p	4.ccn\	p
.	.	8c/	.	.	.
2D\	.	8A/	.	.	.
.	.	8c/	.	8b'/L	.
.	.	8A/	.	8a'/	.
.	.	8c/J	.	8g'/J	.
!	!	!LO:LB:g=original	!	!	!
=98	=98	=98	=98	=98	=98
*	*	*xywh-#41:621,3944,3380,405	*	*	*
4D\	.	8A/L	.	8f#'/L	.
.	.	8c/J	.	8e'/	.
2DD/	.	8A/L	.	8f#'/	.
.	.	8c/J	.	8d'/	.
.	.	8A/L	.	8e'/	.
.	.	8c/J	.	8f#'/J	.
=99	=99	=99	=99	=99	=99
2.GG/	.	8B/L	.	4.g/	.
.	.	8d/	.	.	.
.	.	8B/	.	.	.
.	.	8d/J	.	(16g/LL	.
.	.	.	.	16b/JJ)	.
.	.	8c/L	.	8a`/L	.
.	.	8d/J	.	(16a/L	.
.	.	.	.	16cc/JJ)	.
=100	=100	=100	=100	=100	=100
*	*	*^	*	*	*
4GG/	.	8r	8ryyyy	.	(2b\	.
.	.	8d/L	8ryyyy	.	.	.
4r	.	8d/	4.B\	.	.	.
.	.	8d/J	.	.	.	.
4r	.	8d 8B/	.	.	8gg\)	.
!	!	!LO:TUP:a:problem:klamra łukowa	!	!	!	!
.	.	24dd\LL	8ryyyy	.	8r	.
.	.	24ee\	.	.	.	.
.	.	24dd\JJ	.	.	.	.
*	*	*v	*v	*	*	*
=101	=101	=101	=101	=101	=101
8D\L	.	4.cc\	.	8ff#\L	.
8E\	.	.	.	8gg\	.
8F#\	.	.	.	8aa\	.
8G\	.	8b/L	.	8bb\	.
8A\	.	8a/	.	8ccc\	.
8B\J	.	8g/J	.	[8ddd\J	.
=102	=102	=102	=102	=102	=102
8c\L	.	8f#/L	.	8ddd\L]	.
8A\J	.	8e/	.	(8dd\	.
8F#\	.	8f#/	.	8ddd\)	.
4F#\	.	8d/J	.	(8dd\	.
.	.	8e/L	.	8ddd\)	.
[8d\	.	8f#/J	.	(8dd\J	.
!	!	!	!	!LO:LB:g=original	!
=103	=103	=103	=103	=103	=103
*	*	*	*	*xywh-#7:401,3453,3414,432	*
8d\]	.	4.g/	.	8bb\L)	.
4B\	.	.	.	(8dd\	.
.	.	.	.	8bb\	.
8G\	.	16g/LL	.	8ddd\J)	.
.	.	16b/JJ	.	.	.
8D/L	.	8a/L	.	8ccc\L	.
!	!	!LO:SIC:s=(16a/L:v	!	!	!
8DD/J	.	16a/L	.	(16ccc\L	.
!	!	!LO:SIC:s=16b/JJ):v	!	!	!
.	.	16b/JJ	.	16ddd\JJ)	.
=104	=104	=104	=104	=104	=104
4GG/	.	(16g/LL	.	8bb\L	.
.	.	16d/)	.	.	.
!	!	!	!	!LO:SIC:s=16ddd'\L:v	!
.	.	16b'/	.	16ddd\L	.
!	!	!	!	!LO:SIC:s=16ccc'\JJ:v	!
.	.	16a'/JJ	.	16ccc\JJ	.
4D\	.	4a/	.	(4ccc\	.
!	!	!	!LO:DY:b:t=F	!	!
4G\	.	8g/	f	8bb\)	.
!	!	!LO:TUP:a:problem:klamra łukowa	!	!	!
.	.	24dd\LL	.	8r	.
.	.	24cc#X\	.	.	.
.	.	24dd\JJ	.	.	.
!LO:LB:g=original	!	!	!	!	!
=105	=105	=105	=105	=105	=105
*xywh-#63:335,4367,3436,366	*	*	*	*	*
!	!	!	!	!	!LO:MO:mod=!null:null
!	!LO:DY:b:t=F	!	!	!	!LO:DY:t=rinf
8AA/L	f	4.ee\	.	16gg\LL	rfz
.	.	.	.	16aa\	.
8BB/	.	.	.	16ee\	.
.	.	.	.	16aa\JJ	.
8C#X/	.	.	.	16gg\LL	.
.	.	.	.	16aa\	.
8D/J	.	8dd\L	.	16ee\	.
.	.	.	.	16aa\JJ	.
4E\	.	8cc#X\	.	16gg\LL	.
.	.	.	.	16aa\	.
.	.	8a\J	.	16ee\	.
.	.	.	.	16aa\JJ	.
!	!	!LO:LB:g=original	!	!	!
=106	=106	=106	=106	=106	=106
*	*	*xywh-#41:570,4223,3405,430	*	*	*
4F#\	.	8dd\L	.	24ff#\LL	.
.	.	.	.	24aa\	.
.	.	.	.	24bb\	.
.	.	16ff#\L	.	24ccc#X\	.
.	.	.	.	24ddd\	.
.	.	16aa\JJ	.	.	.
.	.	.	.	24eee\JJ	.
8A\L	.	8ddd\L	.	16fff#\LL	.
.	.	.	.	16ddd\	.
16F#\L	.	8dd\	.	16aa\	.
16D\JJ	.	.	.	16ff#\JJ	.
8AA/L	.	8ddd\	.	16fff#\LL	.
.	.	.	.	16ddd\	.
16FF#/L	.	8dd\J	.	16aa\	.
16DD/JJ	.	.	.	16ff#\JJ	.
!	!	!	!	!LO:LB:g=original	!
=107	=107	=107	=107	=107	=107
*	*	*	*	*xywh-#7:409,3840,3391,398	*
8AA/L	.	4.ee\	.	16gg\LL	.
.	.	.	.	16aa\	.
8BB/	.	.	.	16ee\	.
.	.	.	.	16aa\JJ	.
8C#X/	.	.	.	16gg\LL	.
.	.	.	.	16aa\	.
8D/J	.	8dd\L	.	16ee\	.
.	.	.	.	16aa\JJ	.
4E\	.	8cc#X\	.	16gg\LL	.
.	.	.	.	16aa\	.
.	.	8a\J	.	16ee\	.
.	.	.	.	16aa\JJ	.
=108	=108	=108	=108	=108	=108
4D\	.	8dd\L	.	24aa\LL	.
.	.	.	.	24bb\	.
.	.	.	.	24aa\	.
.	.	16ff#\L	.	24gg\	.
.	.	.	.	24ff#\	.
.	.	16aa\JJ	.	.	.
.	.	.	.	24ee\JJ	.
8d\L	.	4ddd\	.	4.dd\	.
16A\L	.	.	.	.	.
16F#\JJ	.	.	.	.	.
8D\	.	4r	.	.	.
!	!	!	!	!LO:TUP:a:problem:klamra łukowa	!LO:DY:b:t=F
8r	.	.	.	24dd\LL	f
.	.	.	.	24ee\	.
.	.	.	.	24dd\JJ	.
=109	=109	=109	=109	=109	=109
!	!LO:DY:t= :mod=%s	!	!	!	!
!	!LO:MO:mod=!LO&colon;DY&colon;ed=brack	!	!	!	!
!	!null	!	!LO:DY:b:t=F	!	!
8GG/L	f	8A/L	f	4.ee\	.
8G\J	.	8c#X/J	.	.	.
*tremolo	*	*	*	*	*
8G\L	.	8A/L	.	.	.
8G\	.	8c#/J	.	8dd\L	.
8G\	.	8A/L	.	8cc#X\	.
8G\J	.	8c#/J	.	8a\J	.
=110	=110	=110	=110	=110	=110
8F#\L	.	4d/	.	8dd\L	.
16D\L	.	.	.	16ff#\L	.
16AA\JJ	.	.	.	16aa\JJ	.
8FF#/	.	8aa\L	.	8ddd\L	.
8r	.	16ff#\L	.	8dd\	.
.	.	16dd\JJ	.	.	.
4r	.	8a/L	.	8ddd\	.
.	.	16f#/L	.	8dd\J	.
.	.	16d/JJ	.	.	.
=111	=111	=111	=111	=111	=111
8AA/L	.	8c#X/L	.	4.ee\	.
8BB/	.	8d/	.	.	.
8C#X/	.	8e/	.	.	.
8D/	.	8f#/	.	8dd\L	.
8E/	.	(8g/	.	8cc#X\	.
8C#/J	.	8a/J	.	8a\J	.
!	!	!	!	!LO:LB:g=original	!
=112	=112	=112	=112	=112	=112
*	*	*	*	*xywh-#7:412,4163,3433,448	*
!	!	!LO:SIC:s=8a'/L):v	!	!	!
8D'\L	>	8a/L)	.	[2dd\	.
8E'\	.	8g'/	>	.	.
8F#'\	.	8a'/	.	.	.
8G'\J	.	8b'/J	.	.	.
8A'\	.	8ccn\	.	8dd\L]	.
!	!	!	!LO:MO:mod=]]	!LO:TUP:a:problem:klamra łukowa	!
8r	]]	8r	]	24dd\L	p
.	.	.	.	24ee\	.
.	.	.	.	24dd\JJ	.
!LO:LB:g=original	!	!	!	!	!
=113	=113	=113	=113	=113	=113
*xywh-#63:338,4661,3383,442	*	*	*	*	*
!	!LO:DY:t= :mod=%s	!	!LO:DY:t= :mod=%s	!	!
!	!LO:MO:mod=!LO&colon;DY&colon;ed=brack	!	!LO:MO:mod=!LO&colon;DY&colon;ed=brack	!	!
!	!null	!	!null	!	!
[2.DD/	p	8A/L	p	4.ccn\	.
.	.	8G#X/	.	.	.
.	.	8A/	.	.	.
.	.	8Gn/	.	8b'/L	.
.	.	8c/	.	8a'/	.
.	.	8B/J	.	8g'/J	.
=114	=114	=114	=114	=114	=114
4DD/]	.	8A/L	.	8f#'/L	.
.	.	8c/J	.	8e'/	.
4r	.	8A/L	.	8f#'/	.
.	.	8c/J	.	8d'/	.
4D\	.	8A/L	.	8e'/	.
.	.	8c/J	.	8f#'/J	.
!	!	!LO:LB:g=original	!	!	!
=115	=115	=115	=115	=115	=115
*	*	*xywh-#41:614,4572,3373,452	*	*	*
4GG/	.	8B/L	.	4.g/	.
.	.	8d/	.	.	.
4G\	.	8B/	.	.	.
.	.	8d/J	.	(16g/LL	.
.	.	.	.	16b/JJ)	.
4F#\	.	8c/L	.	8a`/L	.
.	.	8d/J	.	(16a/L	.
.	.	.	.	16cc/JJ)	.
=116	=116	=116	=116	=116	=116
4G\	.	8B/L	.	(2b\	.
.	.	8d/	.	.	.
4GG/	.	8B/	.	.	.
.	.	8d/J	.	.	.
4r	.	8B/	.	8gg\L)	.
!	!	!	!	!LO:TUP:a:problem:klamra łukowa	!
.	.	8r	.	24dd\L	.
.	.	.	.	24ee\	.
.	.	.	.	24dd\JJ	.
=117	=117	=117	=117	=117	=117
8D\L	.	[<2.dT</	.	4.cc\	.
8G#X\	.	.	.	.	.
8A\	.	.	.	.	.
8Gn\	.	.	.	8b'/L	.
8c\	.	.	.	8a'/	.
8B\J	.	.	.	8g'/J	.
=118	=118	=118	=118	=118	=118
*Xtremolo	*	*	*	*	*
8A\L	.	2.d/_	.	8f#'/L	.
8c\	.	.	.	8e'/	.
8A\	.	.	.	8f#'/	.
8c\	.	.	.	8d'/	.
8A\	.	.	.	8e'/	.
8c\J	.	.	.	8f#'/J	.
!	!	!	!	!LO:LB:g=original	!
=119	=119	=119	=119	=119	=119
*	*	*	*	*xywh-#7:420,4512,3414,546	*
4.B\	.	4d/_	.	4.g/	.
.	.	8d/L]	.	.	.
8G\	.	8d/	.	(16g/LL	.
.	.	.	.	16b/JJ)	.
8F#\L	.	8c/	.	8a`/L	.
8D\J	.	8c/J	.	(16a/L	.
.	.	.	.	16b/JJ)	.
=120	=120	=120	=120	=120	=120
4G\	.	4B/	.	4.g/	.
4GG/	.	4r	.	.	.
.	.	.	.	(16g/LL	.
.	.	.	.	16b/JJ)	.
4r	.	4r	.	8a`/L	.
.	.	.	.	(16a/L	.
.	.	.	.	16b/JJ)	.
=121	=121	=121	=121	=121	=121
4G\	.	4.g/	.	4.b\	.
4GG/	.	.	.	.	.
!	!	!	!LO:HP:t= :mod=%s	!	!
!	!	!	!LO:MO:mod=!LO&colon;HP&colon;ed=brack	!LO:MO:mod=!null:null	!
!	!	!LO:SIC:s=(16g/LL:v	!null	!LO:TX:b:i:t=cresc_cen_do:problem:dynamics with line extensions	!LO:HP:b:i:t=cres-cen-do:ext=ud
.	.	16g/LL	<	(16b\LL	<
!	!	!LO:SIC:s=16b/JJ):v	!	!	!
.	.	16b/JJ	.	16dd\JJ)	.
4r	.	8a\L	.	8cc`\L	.
!	!	!LO:SIC:s=(16a\L:v	!	!	!
.	.	16a\L	.	(16cc\L	.
!	!	!LO:SIC:s=16cc\JJ):v	!	!	!
.	.	16cc\JJ	.	16ee\JJ)	.
=122	=122	=122	=122	=122	=122
4G\	.	4.b\	.	4.dd\	.
4GG/	.	.	.	.	.
.	.	16b\LL	.	16dd\LL	.
.	.	16dd\JJ	.	16ffn\JJ	.
4r	.	8cc\L	.	8ee`\L	.
.	.	16cc\L	.	16ee\L	.
!	!	!	!LO:HP:t= :mod=%s	!	!
!	!	!	!LO:MO:mod=!LO&colon;HP&colon;ed=brack	!	!
!	!	!	!null	!	!
.	.	16ee\JJ	[	16gg\JJ	[
=123	=123	=123	=123	=123	=123
!	!LO:DY:t= :mod=%s	!	!LO:DY:t= :mod=%s	!	!
!	!LO:MO:mod=!LO&colon;DY&colon;ed=brack	!	!LO:MO:mod=!LO&colon;DY&colon;ed=brack	!	!
!	!null	!	!null	!	!LO:DY:b:t=F
4D\	f	8dd\L	f	8ff#\L	f
.	.	8cc\	.	8ee\	.
4DD/	.	8dd\	.	8ff#\	.
.	.	8cc\	.	8ee\	.
!LO:MO:mod=!null:null	!	!	!	!	!
!LO:TX:b:t=V. S.	!	!	!	!	!
4DD/	.	8dd\	.	8ff#\	.
.	.	8cc\J	.	8ee\J	.
=124	=124	=124	=124	=124	=124
!	!	!	!	!LO:MO:mod=!null:null	!
!	!	!	!	!LO:TX:b:t=siegue l'All|o.	!
!LO:MO:mod=!null:null	!	!	!	!LO:MO:mod=!null:null	!
!LO:TX:b:t=l'All|o.	!	!	!	!LO:TX:a:t=V.S.	!
!	!	!	!	!LO:SIC:s=2dd 2b;\:v	!
2G 2GG;\	.	4dd\	.	2ff# 2dd;\	.
!	!	!LO:MO:mod=!null:null	!	!	!
!	!	!LO:TX:b:t=Siegue l'Allegro	!	!	!
.	.	2b 2g;/	.	.	.
4ryy	.	.	.	4ryy	.
==	==	==	==	==	==
*-	*-	*-	*-	*-	*-
!!!system-decoration: [(s1,s2,s3)]
!!!tempo-scaling: 60%
!!!AIN: 1 bass 1 empty 1 violn
!!!RDF**kern: > = above
!!!RDF**kern: < = below
!!!filter-modern: sic -sq | shed -e "s/LO:DY:(a|b|rj)/LO:dy:$1/L" | shed -e "s/TX(.*):t=P:/tx$1:t=P:/LG" | modori -m | autostem -r | shed -e "s/yy//" | shed -k -e "s/\(y([^y])/($1/" | shed -e "s/-//B" | shed -k -e "s/[<>]//g" | shed -k -e "s/:TUP:/:tup:/L" | shed -k -e "s/r[a-gA-G]+/r/D"
!!!ENC: Marta Opryszak
!!!END: 2022-05-20
!!!ENC: Natalia Wrzos
!!!END: 2022-06-15
!!!EED-modern: Antoni Szymański
!!!END-modern: 2022-08-12
!!!IIIF: https://polona.pl/iiif/item/MTAxMDA3MzY2/manifest.json
!!!ENC-iiif: Mateusz Mrugas
!!!END-iiif: 2022-09-08
!!!YEC: Copyright 2022 Narodowy Instytut Fryderyka Chopina (https://polishscores.org)
!!!YEM: License CC-BY-4.0 (https://creativecommons.org/licenses/by/4.0)
